production/images/icons/account.svg

<svg width="14" height="14" viewBox="0 0 14 14" fill="none" xmlns="http://www.w3.org/2000/svg">
<g clip-path="url(#clip0)">
<path d="M6.90036 6.74387C7.82684 6.74387 8.62911 6.41158 9.28461 5.75597C9.94011 5.10046 10.2724 4.29842 10.2724 3.37183C10.2724 2.44556 9.94011 1.6434 9.2845 0.987686C8.62889 0.332291 7.82674 0 6.90036 0C5.97377 0 5.17172 0.332291 4.51622 0.987793C3.86072 1.6433 3.52832 2.44545 3.52832 3.37183C3.52832 4.29842 3.86072 5.10057 4.51633 5.75607C5.17194 6.41147 5.97409 6.74387 6.90036 6.74387Z" fill="white" fill-opacity="0.8"/>
<path d="M12.8004 10.7653C12.7815 10.4925 12.7433 10.195 12.687 9.88072C12.6301 9.56413 12.557 9.26485 12.4694 8.9913C12.3789 8.70857 12.2559 8.42937 12.1038 8.1618C11.9459 7.88409 11.7605 7.64227 11.5524 7.44328C11.3348 7.23511 11.0685 7.06773 10.7604 6.94565C10.4534 6.8242 10.1132 6.76268 9.74933 6.76268C9.60641 6.76268 9.4682 6.82132 9.20128 6.9951C9.037 7.10223 8.84485 7.22614 8.63037 7.36317C8.44698 7.48003 8.19853 7.58951 7.89166 7.68863C7.59227 7.78551 7.28828 7.83464 6.98825 7.83464C6.68822 7.83464 6.38434 7.78551 6.08463 7.68863C5.77808 7.58961 5.52963 7.48013 5.34645 7.36328C5.134 7.22752 4.94174 7.10362 4.77501 6.995C4.50841 6.82121 4.37009 6.76257 4.22717 6.76257C3.86316 6.76257 3.52307 6.8242 3.2162 6.94576C2.90837 7.06763 2.64188 7.235 2.42409 7.44339C2.21613 7.64249 2.03059 7.8842 1.87294 8.1618C1.72095 8.42937 1.5979 8.70847 1.50732 8.99141C1.41985 9.26495 1.34668 9.56413 1.28986 9.88072C1.23357 10.1945 1.19533 10.4922 1.17642 10.7657C1.15784 11.0335 1.14844 11.3116 1.14844 11.5924C1.14844 12.3232 1.38075 12.9148 1.83887 13.3511C2.29132 13.7817 2.89 14.0001 3.61803 14.0001H10.3591C11.0871 14.0001 11.6856 13.7818 12.1382 13.3511C12.5964 12.9151 12.8287 12.3234 12.8287 11.5923C12.8286 11.3102 12.8191 11.0319 12.8004 10.7653Z" fill="white" fill-opacity="0.8"/>
</g>
<defs>
<clipPath id="clip0">
<rect width="14" height="14.0001" fill="white"/>
</clipPath>
</defs>
</svg>

<svg width="14" height="14" viewBox="0 0 14 14" fill="none" xmlns="http://www.w3.org/2000/svg"><g clip-path="url(#clip0)" fill="#fff" fill-opacity=".8"><path d="M6.9 6.744c.927 0 1.73-.332 2.385-.988a3.263 3.263 0 00.987-2.384A3.26 3.26 0 009.284.988 3.263 3.263 0 006.9 0c-.926 0-1.728.332-2.384.988a3.263 3.263 0 00-.988 2.384c0 .926.333 1.729.988 2.384a3.263 3.263 0 002.384.988zm5.9 4.021a8.325 8.325 0 00-.113-.884 6.98 6.98 0 00-.218-.89 4.395 4.395 0 00-.365-.83 3.13 3.13 0 00-.552-.718 2.43 2.43 0 00-.792-.497 2.737 2.737 0 00-1.01-.183c-.144 0-.282.058-.549.232a73.95 73.95 0 01-.57.368 3.27 3.27 0 01-.74.326 2.925 2.925 0 01-.903.146c-.3 0-.604-.05-.903-.146a3.264 3.264 0 01-.739-.326c-.212-.135-.404-.26-.571-.368-.267-.174-.405-.232-.548-.232-.364 0-.704.061-1.01.183a2.43 2.43 0 00-.793.497c-.208.2-.393.441-.551.719a4.402 4.402 0 00-.366.83c-.087.273-.16.572-.217.889a8.298 8.298 0 00-.114.885 12 12 0 00-.028.826c0 .731.233 1.323.69 1.76.453.43 1.052.648 1.78.648h6.741c.728 0 1.327-.218 1.78-.649.457-.436.69-1.028.69-1.759 0-.282-.01-.56-.029-.827z"/></g><defs><clipPath id="clip0"><path fill="#fff" d="M0 0h14v14H0z"/></clipPath></defs></svg>
